X:1
T:Title
%%score { ( 1 3 ) | ( 2 4 ) }
L:1/8
Q:1/4=100
M:6/8
K:A
V:1 treble nm="Grand Piano"
V:3 treble 
V:2 bass 
V:4 bass 
V:1
 [Ec][Ec][Ec] [Ec][EB][EA] | FGA E3 | E2 c B3 | E2 B [CA]3 | [Ec][Ec][Ec] cB[EA] | FGA E3 | %6
w: J.~M.~Dungan * * * * *||||||
 E2 c B2 E | [CA]6 | BBB GFE | A2 B [Ec]3 | BBB BGE | .[EG]2 [A,^DF] [G,E]3 | %12
w: ||||||
 [Ec][Ec][Ec] [Ec][EB][EA] | FGA E3 | E2 c B2 E |[M:5/8] [CA]-[CA]- [CA]3 |[M:1/8] [Ec] | %17
w: |||||
[M:3/4] [Fd]2 [Fd] [Ec]2 [DB] | [Ec]2 [Ec] [DB]2 [CA] | B>B BB AG | [CA]2 [DB] [Ec]2 [Ec] | %21
w: ||||
 [Fd]2 [Fd] [Ec]2 [DB] | [Ec]2 [Ec] [DB]2 [CA] | B>B BB cd | c2 B [CA]3 |] %25
w: ||||
V:2
 [A,,A,][A,,A,][A,,A,] [A,,A,][B,,G,][C,A,] | [D,A,D]2 [F,A,D] [A,C]3 | [E,G,D]2 [E,G,D] [E,G,D]3 | %3
 [E,G,D]2 [E,G,D] [A,,A,]3 | [A,,A,][A,,A,][A,,A,] [A,,A,][B,,G,][C,A,] | [D,A,D]2 [F,A,D] [A,C]3 | %6
 [E,G,D]2 [E,G,D] [E,G,D]2 [E,G,D] | [A,,A,]6 | [E,G,E][E,G,E][E,G,E] [E,B,E][E,CE][E,D] | %9
 [A,CE]2 [E,G,E] [A,,A,]3 | [E,G,E][E,G,E][E,G,E] [E,G,E][E,B,E][C,C] | z B,B,, E,3 | %12
 [A,,A,][A,,A,][A,,A,] [A,,A,][B,,G,][C,A,] | [D,A,D]2 [F,A,D] [A,C]3 | %14
 [E,G,D]2 [E,G,D] [E,G,D]2 [E,G,D] |[M:5/8] [A,,A,]-[A,,A,]- [A,,A,]3 |[M:1/8] [A,,A,] | %17
[M:3/4] [D,A,]2 [D,A,] [D,A,]2 [D,A,] | [A,,A,]2 [A,,A,] [A,,A,]2 [A,,A,] | %19
 [E,G,D]>[E,G,D] [E,G,D][E,G,D] [E,A,C][E,B,] | [A,,A,]2 [A,,A,] [A,,A,]2 [A,,A,] | %21
 [D,A,]2 [D,A,] [D,A,]2 [D,A,] | [A,,A,]2 [A,,A,] [A,,A,]2 [A,,A,] | %23
 [E,G,D]>[E,G,D] [E,G,D][E,G,D] [E,G,E][E,G,F] | [E,A,E]2 [E,G,D] [A,,A,]3 |] %25
V:3
 x6 | x6 | x6 | x6 | z3 .E3 | x6 | x6 | x6 | x6 | x6 | x6 | x6 | x6 | x6 | x6 |[M:5/8] x5 | %16
[M:1/8] x |[M:3/4] x6 | x6 | x6 | x6 | x6 | x6 | x6 | x6 |] %25
V:4
 x6 | x6 | x6 | x6 | x6 | x6 | x6 | x6 | x6 | x6 | x6 | .B,,3 z3 | x6 | x6 | x6 |[M:5/8] x5 | %16
[M:1/8] x |[M:3/4] x6 | x6 | x6 | x6 | x6 | x6 | x6 | x6 |] %25

